assets/flags-color/Uy.svg

<svg xmlns="http://www.w3.org/2000/svg" viewBox="0 0 512 512"><path fill="#f5f5f5" d="M0 0h512v512H0z"/><path fill="#4173cd" d="M194.24 56.889H512v56.889H194.24z"/><path fill="#f5f5f5" d="M0 113.78h512v56.889H0z"/><path fill="#4173cd" d="M194.24 170.67H512v56.889H194.24z"/><path fill="#f5f5f5" d="M0 227.56h512v56.889H0z"/><path fill="#4173cd" d="M0 284.44h512v56.889H0z"/><path fill="#f5f5f5" d="M0 341.33h512v56.889H0z"/><path fill="#4173cd" d="M0 398.22h512v56.889H0z"/><path fill="#ffe15a" d="M97.646 35.665l22.541 104.296 35.269-14.609z"/><path fill="#ffcd5a" d="M97.646 35.665l40.175 96.991-17.634 7.305z"/><path fill="#ffe15a" d="M185.301 247.282l-22.54-104.295-35.27 14.609z"/><path fill="#ffcd5a" d="M185.301 247.282l-40.175-96.991 17.635-7.304z"/><path fill="#ffe15a" d="M247.282 97.646l-104.295 22.541 14.609 35.269z"/><path fill="#ffcd5a" d="M247.282 97.646l-96.991 40.175-7.304-17.634z"/><path fill="#ffe15a" d="M35.665 185.301l104.296-22.54-14.609-35.27z"/><path fill="#ffcd5a" d="M35.665 185.301l96.991-40.175 7.305 17.635z"/><path fill="#ffe15a" d="M185.301 35.665l-57.81 89.687 35.27 14.609z"/><path fill="#ffcd5a" d="M185.301 35.665l-40.175 96.991-17.635-7.304z"/><path fill="#ffe15a" d="M97.646 247.282l57.81-89.686-35.269-14.609z"/><path fill="#ffcd5a" d="M97.646 247.282l40.175-96.991 17.635 7.305z"/><path fill="#ffe15a" d="M247.282 185.301l-89.686-57.81-14.609 35.27z"/><path fill="#ffcd5a" d="M247.282 185.301l-96.991-40.175 7.305-17.635z"/><path fill="#ffe15a" d="M35.665 97.646l89.687 57.81 14.609-35.269z"/><path fill="#ffcd5a" d="M35.665 97.646l96.991 40.175-7.304 17.635z"/><path fill="#f5f5f5" d="M0 0h283v284H0z"/><path fill="#ffe15a" d="M141.474 26.947L122.386 131.93h38.175z"/><path fill="#ffcd5a" d="M141.474 26.947V131.93h-19.088z"/><path fill="#ffe15a" d="M141.474 256l19.087-104.982h-38.175z"/><path fill="#ffcd5a" d="M141.474 256V151.018h19.087z"/><path fill="#ffe15a" d="M256 141.474l-104.982-19.088v38.175z"/><path fill="#ffcd5a" d="M256 141.474H151.018v-19.088z"/><path fill="#ffe15a" d="M26.947 141.474l104.983 19.087v-38.175z"/><path fill="#ffcd5a" d="M26.947 141.474H131.93v19.087z"/><path fill="#ffe15a" d="M222.456 60.491l-87.731 60.737 26.994 26.994z"/><path fill="#ffcd5a" d="M222.456 60.491l-74.234 74.234-13.497-13.497z"/><path fill="#ffe15a" d="M60.491 222.456l87.731-60.737-26.994-26.994z"/><path fill="#ffcd5a" d="M60.491 222.456l74.234-74.234 13.497 13.497z"/><path fill="#ffe15a" d="M222.456 222.456l-60.737-87.731-26.994 26.994z"/><path fill="#ffcd5a" d="M222.456 222.456l-74.234-74.234 13.497-13.497z"/><path fill="#ffe15a" d="M60.491 60.491l60.737 87.731 26.994-26.994z"/><path fill="#ffcd5a" d="M60.491 60.491l74.234 74.234-13.497 13.497z"/><circle cx="141.47" cy="141.47" r="38.17" fill="#ffe15a"/></svg>

<svg xmlns="http://www.w3.org/2000/svg" x="0" y="0" enable-background="new 0 0 512 512" version="1.1" viewBox="0 0 512 512" xml:space="preserve"><path fill="#F5F5F5" d="M0 0H512V512H0z"/><path fill="#4173CD" d="M194.24 56.889H512V113.778H194.24z"/><path fill="#F5F5F5" d="M0 113.78H512V170.669H0z"/><path fill="#4173CD" d="M194.24 170.67H512V227.559H194.24z"/><path fill="#F5F5F5" d="M0 227.56H512V284.449H0z"/><path fill="#4173CD" d="M0 284.44H512V341.329H0z"/><path fill="#F5F5F5" d="M0 341.33H512V398.219H0z"/><path fill="#4173CD" d="M0 398.22H512V455.10900000000004H0z"/><path fill="#FFE15A" d="M97.646 35.665 120.187 139.961 155.456 125.352z"/><path fill="#FFCD5A" d="M97.646 35.665 137.821 132.656 120.187 139.961z"/><path fill="#FFE15A" d="M185.301 247.282 162.761 142.987 127.491 157.596z"/><path fill="#FFCD5A" d="M185.301 247.282 145.126 150.291 162.761 142.987z"/><path fill="#FFE15A" d="M247.282 97.646 142.987 120.187 157.596 155.456z"/><path fill="#FFCD5A" d="M247.282 97.646 150.291 137.821 142.987 120.187z"/><path fill="#FFE15A" d="M35.665 185.301 139.961 162.761 125.352 127.491z"/><path fill="#FFCD5A" d="M35.665 185.301 132.656 145.126 139.961 162.761z"/><path fill="#FFE15A" d="M185.301 35.665 127.491 125.352 162.761 139.961z"/><path fill="#FFCD5A" d="M185.301 35.665 145.126 132.656 127.491 125.352z"/><path fill="#FFE15A" d="M97.646 247.282 155.456 157.596 120.187 142.987z"/><path fill="#FFCD5A" d="M97.646 247.282 137.821 150.291 155.456 157.596z"/><path fill="#FFE15A" d="M247.282 185.301 157.596 127.491 142.987 162.761z"/><path fill="#FFCD5A" d="M247.282 185.301 150.291 145.126 157.596 127.491z"/><path fill="#FFE15A" d="M35.665 97.646 125.352 155.456 139.961 120.187z"/><path fill="#FFCD5A" d="M35.665 97.646 132.656 137.821 125.352 155.456z"/><path fill="#F5F5F5" d="M0 0H283V284H0z"/><path fill="#FFE15A" d="M141.474 26.947 122.386 131.93 160.561 131.93z"/><path fill="#FFCD5A" d="M141.474 26.947 141.474 131.93 122.386 131.93z"/><path fill="#FFE15A" d="M141.474 256 160.561 151.018 122.386 151.018z"/><path fill="#FFCD5A" d="M141.474 256 141.474 151.018 160.561 151.018z"/><path fill="#FFE15A" d="M256 141.474 151.018 122.386 151.018 160.561z"/><path fill="#FFCD5A" d="M256 141.474 151.018 141.474 151.018 122.386z"/><path fill="#FFE15A" d="M26.947 141.474 131.93 160.561 131.93 122.386z"/><path fill="#FFCD5A" d="M26.947 141.474 131.93 141.474 131.93 160.561z"/><path fill="#FFE15A" d="M222.456 60.491 134.725 121.228 161.719 148.222z"/><path fill="#FFCD5A" d="M222.456 60.491 148.222 134.725 134.725 121.228z"/><path fill="#FFE15A" d="M60.491 222.456 148.222 161.719 121.228 134.725z"/><path fill="#FFCD5A" d="M60.491 222.456 134.725 148.222 148.222 161.719z"/><path fill="#FFE15A" d="M222.456 222.456 161.719 134.725 134.725 161.719z"/><path fill="#FFCD5A" d="M222.456 222.456 148.222 148.222 161.719 134.725z"/><path fill="#FFE15A" d="M60.491 60.491 121.228 148.222 148.222 121.228z"/><path fill="#FFCD5A" d="M60.491 60.491 134.725 134.725 121.228 148.222z"/><circle cx="141.47" cy="141.47" r="38.17" fill="#FFE15A"/></svg>
